symbols/web/motion_photos_paused/materialsymbolsoutlined/motion_photos_paused_wght100grad200fill1_48px.svg

<svg xmlns="http://www.w3.org/2000/svg" height="48" width="48"><path d="M19.75 29.25h1.75v-10.5h-1.75Zm6.75 0h1.75v-10.5H26.5ZM24 42.2q-3.75 0-7.075-1.425t-5.8-3.85q-2.475-2.425-3.9-5.75Q5.8 27.85 5.8 24.1q0-1.85.325-3.6t1.025-3.4l1.25 1.3q-.45 1.35-.65 2.75T7.55 24q0 6.9 4.8 11.675T24 40.45q6.85 0 11.65-4.8 4.8-4.8 4.8-11.65 0-6.85-4.8-11.65-4.8-4.8-11.7-4.8-1.4 0-2.8.225t-2.7.675L17 7.1q1.6-.55 3.3-.925Q22 5.8 23.7 5.8q3.8 0 7.175 1.4t5.9 3.9q2.525 2.5 3.975 5.825Q42.2 20.25 42.2 24t-1.425 7.075q-1.425 3.325-3.875 5.8-2.45 2.475-5.8 3.9Q27.75 42.2 24 42.2Zm-12.45-29q-.65 0-1.125-.5t-.475-1.2q0-.65.5-1.125t1.2-.475q.65 0 1.125.5t.475 1.2q0 .65-.5 1.125t-1.2.475Zm-.3 10.8q0-5.3 3.725-9.025Q18.7 11.25 24 11.25q5.3 0 9.025 3.725Q36.75 18.7 36.75 24q0 5.25-3.725 9T24 36.75q-5.3 0-9.025-3.75-3.725-3.75-3.725-9Z"/></svg>

<svg xmlns="http://www.w3.org/2000/svg" height="48" width="48"><path d="M19.75 29.25H21.5V18.75H19.75ZM26.5 29.25H28.25V18.75H26.5ZM24 42.2Q20.25 42.2 16.925 40.775Q13.6 39.35 11.125 36.925Q8.65 34.5 7.225 31.175Q5.8 27.85 5.8 24.1Q5.8 22.25 6.125 20.5Q6.45 18.75 7.15 17.1L8.4 18.4Q7.95 19.75 7.75 21.15Q7.55 22.55 7.55 24Q7.55 30.9 12.35 35.675Q17.15 40.45 24 40.45Q30.85 40.45 35.65 35.65Q40.45 30.85 40.45 24Q40.45 17.15 35.65 12.35Q30.85 7.55 23.95 7.55Q22.55 7.55 21.15 7.775Q19.75 8 18.45 8.45L17 7.1Q18.6 6.55 20.3 6.175Q22 5.8 23.7 5.8Q27.5 5.8 30.875 7.2Q34.25 8.6 36.775 11.1Q39.3 13.6 40.75 16.925Q42.2 20.25 42.2 24Q42.2 27.75 40.775 31.075Q39.35 34.4 36.9 36.875Q34.45 39.35 31.1 40.775Q27.75 42.2 24 42.2ZM11.55 13.2Q10.9 13.2 10.425 12.7Q9.95 12.2 9.95 11.5Q9.95 10.85 10.45 10.375Q10.95 9.9 11.65 9.9Q12.3 9.9 12.775 10.4Q13.25 10.9 13.25 11.6Q13.25 12.25 12.75 12.725Q12.25 13.2 11.55 13.2ZM11.25 24Q11.25 18.7 14.975 14.975Q18.7 11.25 24 11.25Q29.3 11.25 33.025 14.975Q36.75 18.7 36.75 24Q36.75 29.25 33.025 33Q29.3 36.75 24 36.75Q18.7 36.75 14.975 33Q11.25 29.25 11.25 24Z"/></svg>
